X: 2091
T: Çek Küreği Güzelim
C: Ârif Sâmi Toker
O: Turkey
F: http://compmusic.upf.edu/node/140
N: mahur--sarki--nimsofyan--cek_kuregi_guzelim--arif_sami_toker
N: makam= mahur
N: form= sarki
N: usul= nimsofyan = 2/4
M: 2/4
L: 1/16
K: C ^9/8f   
Q: 1/4=108
%%MIDI tuningsystem comma53
b4 agfe  | d8  | b4 agfe  | d8  | d2dd e2c2  | B8  | \
w:  ARANAĞME  |   |   |   |   |   | 
d2dd e2c2  | 
w:   | 
B8  | d2dd e2c2  | A8  | z2d2 e2f2  | g2f2 e2d2  | \
w:   |   |   |   |   | 
b4 agfe  | d8  | 
w:  ARANAĞME  |   | 
b4 agfe  | d8  | d2dd e2c2  | B8  | d2dd e2c2  | B8  | \
w:   |   |   |   |   |   | 
d2dd e2c2  | 
w:   | 
A8  | z2d2 d2f2  | g2d2 g4  | d4 g4  | f4 e4  | \
w:   |   |   |  Çek kü  |  re ği  | 
a4 gfef  | d8  | d4 e4  | c4 A4  | 
w:  gü ze  |  lim  |  U za  |  na lım  | 
b4 agfa  | g8  | d4 g4  | f4 e4  | a4 gfef  | d8  | \
w:  Gök su  |  ya  |  Çek kü  |  re ği  |  gü ze  |  lim  | 
d4 e4  | c4 A4  | b4 agfa  | 
w:  U za  |  na lım  |  Gök su  | 
g8  | d2dd e2c2  | B8  | d2dd e2c2  | B8  | d2dd e2c2  | A8  | \
w:  ya  |  SAZ  |   |   |   |   |   | 
z2d2 e2f2  | 
w:   | 
g2d2 g4  | d4 g4  | f4 g4  | e4 b3a  | g3f e4  | \
w:   |  Gün_ i  |  ner ken  |  dö ne  |  lim  | 
d2e2 =f2e2  | d3c B2^A2  | 
w:  sü zü le rek  |  Mo *  da  | 
B6d2  | ^c4 d4  | d4 g4  | c3B A4  | d4 ^c2e2  | d8  | \
w:  ya  |   |  Gün i  |  ner *  ken  |  dö ne  |  lim  | 
d2d2 d2d2  | e4 f4  | g8  | g8  | 
w:  sü zü le rek  |  Mo da  |  ya  |   | 
b4 agfe  | d8  | b4 agfe  | d8  | d2dd e2c2  | B8  | \
w:  ARANAĞME  |   |   |   |   |   | 
d2dd e2c2  | 
w:   | 
B8  | d2dd e2c2  | A8  | z2d2 e2f2  | g2f2 e2d2  | \
w:   |   |   |   |   | 
b4 agfe  | d8  | 
w:  ARANAĞME  |   | 
b4 agfe  | d8  | d2dd e2c2  | B8  | d2dd e2c2  | B8  | \
w:   |   |   |   |   |   | 
d2dd e2c2  | 
w:   | 
A8  | z2d2 d2f2  | g2d2 g4  | d4 g4  | f4 e4  | \
w:   |   |   |  Çek kü  |  re ği  | 
a4 gfef  | d8  | d4 e4  | c4 A4  | 
w:  gü ze  |  lim  |  U za  |  na lım  | 
b4 agfa  | g8  | d4 g4  | f4 e4  | a4 gfef  | d8  | \
w:  Gök su  |  ya  |  Çek kü  |  re ği  |  gü ze  |  lim  | 
d4 e4  | c4 A4  | b4 agfa  | 
w:  U za  |  na lım  |  Gök su  | 
g8  | d2dd e2c2  | B8  | d2dd e2c2  | B8  | d2dd e2c2  | A8  | \
w:  ya  |  SAZ  |   |   |   |   |   | 
z2d2 e2f2  | 
w:   | 
g2d2 g4  | d4 g4  | f4 g4  | e4 b3a  | g3f e4  | \
w:   |  Gün_ i  |  ner ken  |  dö ne  |  lim  | 
d2e2 =f2e2  | d3c B2^A2  | 
w:  sü zü le rek  |  Mo *  da  | 
B6d2  | ^c4 d4  | d4 g4  | c3B A4  | d4 ^c2e2  | d8  | \
w:  ya  |   |  Gün i  |  ner *  ken  |  dö ne  |  lim  | 
d2d2 d2d2  | e4 f4  | g8  | g8  | 
w:  sü zü le rek  |  Mo da  |  ya  |   | 
|


